lib/functional/design/paint-roller.svg

<svg xmlns="http://www.w3.org/2000/svg" fill="none" stroke="currentColor" aria-hidden="true" viewBox="0 0 32 32"><g id="Icon-PaintRoller"><g clip-path="url(#clip0_8_818)"><g id="size=md (32px)"><g id="PaintRoller"><path id="Vector" stroke-linecap="round" stroke-linejoin="round" stroke-width="2" d="M25 7H6C5.44772 7 5 7.44772 5 8V16C5 16.5523 5.44772 17 6 17H25C25.5523 17 26 16.5523 26 16V8C26 7.44772 25.5523 7 25 7Z"/><path id="Vector_2" stroke-linecap="round" stroke-linejoin="round" stroke-width="2" d="M26 12H29C29.2652 12 29.5196 12.1054 29.7071 12.2929C29.8946 12.4804 30 12.7348 30 13V19.25C29.9982 19.4669 29.9268 19.6776 29.7963 19.8508C29.6657 20.0241 29.483 20.1509 29.275 20.2125L16.725 23.7875C16.517 23.8491 16.3343 23.9759 16.2037 24.1492C16.0732 24.3224 16.0018 24.5331 16 24.75V29"/><path id="Vector_3" stroke-linecap="round" stroke-linejoin="round" stroke-width="2" d="M5 12H2"/></g></g></g></g><defs><clipPath id="clip0_8_818"><rect width="32" height="32" fill="white" rx="5"/></clipPath></defs></svg>

<svg xmlns="http://www.w3.org/2000/svg" fill="none" stroke="currentColor" aria-hidden="true" viewBox="0 0 32 32"><g stroke="#101828" stroke-linecap="round" stroke-linejoin="round" stroke-width="2" clip-path="url(#a)"><path d="M25 7H6a1 1 0 0 0-1 1v8a1 1 0 0 0 1 1h19a1 1 0 0 0 1-1V8a1 1 0 0 0-1-1Z"/><path d="M26 12h3a1 1 0 0 1 1 1v6.25a1.012 1.012 0 0 1-.725.962l-12.55 3.576a1.013 1.013 0 0 0-.725.962V29M5 12H2"/></g><defs><clipPath id="a"><rect width="32" height="32" fill="#fff" rx="5"/></clipPath></defs></svg>
